!!!OTL: Die Maid vom Rosenthal
!!!ARE: Europa, Mitteleuropa, Deutschland
!!!SCT: A0057
!!!YEM: Copyright 1995, estate of Helmut Schaffrath.
**kern
*ICvox
*Ivox
*M3/2
*k[]
*a:
{2a
=1
1a
2a
=2
1a
2b
=3
1ccn
2ccn
=4
1ccn}
{2ccn
=5
2a
2a
2a
=6
1ccn
2ccn
=7
1.a
=8
1gn}
{2gn
=9
1ccn
2dd
=10
1ee
2ee
=11
1ee
2ee
=12
1ee}
{2ee
=13
1ee
2ee
=14
1ee
2ee
=15
1.b
=16
1dd}
{2dd
=17
1ccn
2a
=18
1b
2a
=19
1a
2g#
=20
1a}
==
!!!AGN: Romanze, Ballade, Lied
!! Melodie: H. Finck 1536 No. 47.
!!!ONB: ESAC (Essen Associative Code) Database: ALTDEU
!!!AMT: simple triple
!!!AIN: vox
!!!EED: Helmut Schaffrath
!!!EEV: 1.0
*-
